src/assets/skills/npm.svg

<svg height="100pt" viewBox="0 0 100 100" width="100pt" xmlns="http://www.w3.org/2000/svg"><path d="m0 0h100v100h-100z" fill="#cb3837"/><path d="m10 34.446v26.668h22.22v4.44h17.78v-4.44h40v-26.668zm22.22 22.213h-4.44v-13.333h-4.45v13.333h-8.88v-17.77h17.77zm13.332 0v4.452h-8.882v-22.222h17.78v17.772h-8.898zm40.005 0h-4.432v-13.333h-4.452v13.333h-4.451v-13.333h-4.432v13.333h-8.902v-17.77h26.672zm-40.007-13.328h4.45v8.89h-4.45z" fill="#fff"/></svg>

<?xml version="1.0" encoding="UTF-8" standalone="no"?><!-- Generator: Gravit.io --><svg xmlns="http://www.w3.org/2000/svg" xmlns:xlink="http://www.w3.org/1999/xlink" style="isolation:isolate" viewBox="0 0 100 100" width="100pt" height="100pt"><rect x="0" y="0" width="100" height="100" transform="matrix(1,0,0,1,0,0)" fill="rgb(203,56,55)"/><path d=" M 10 34.446 L 10 61.114 L 32.22 61.114 L 32.22 65.554 L 50 65.554 L 50 61.114 L 90 61.114 L 90 34.446 L 10 34.446 Z  M 32.22 56.659 L 27.78 56.659 L 27.78 43.326 L 23.33 43.326 L 23.33 56.659 L 14.45 56.659 L 14.45 38.889 L 32.22 38.889 L 32.22 56.659 Z  M 45.552 56.659 L 45.552 61.111 L 36.67 61.111 L 36.67 38.889 L 54.45 38.889 L 54.45 56.661 L 45.552 56.661 L 45.552 56.659 Z  M 85.557 56.659 L 81.125 56.659 L 81.125 43.326 L 76.673 43.326 L 76.673 56.659 L 72.222 56.659 L 72.222 43.326 L 67.79 43.326 L 67.79 56.659 L 58.888 56.659 L 58.888 38.889 L 85.56 38.889 L 85.557 56.659 Z  M 45.55 43.331 L 50 43.331 L 50 52.221 L 45.55 52.221 L 45.55 43.331 Z " fill="rgb(255,255,255)"/></svg>
